static/images/bulb-icon.svg

<svg height="109" viewBox="0 0 112 109" width="112" xmlns="http://www.w3.org/2000/svg"><g fill="none" fill-rule="evenodd" stroke="#686868" stroke-width="3" transform="translate(0 2)"><path d="m32.758 93.154v12.138h38.461v-22.667h12.139c9.68003-.0280081 17.52044-7.8679716 17.549-17.548v-5.85h8.043l-8.043-16.379v-25.3c-.02856-9.68002835-7.86897-17.51999193-17.549-17.548h-32.9c-9.6804189.02801081-17.5209892 7.86858112-17.549 17.549"/><g transform="translate(15.648 24.714)"><path d="m18.133 7.897c-5.1069987 1.59658695-9.26919189 5.3318699-11.407 10.237"/><path d="m18.133-.0000005c-4.8095879-.00079547-9.42240141 1.90952179-12.82319986 5.3105078-3.40079846 3.400986-5.31086134 8.0139049-5.30980102 12.8234927.06231912 6.4086458 3.43709766 12.3285068 8.92000088 15.647v10.968h18.426v-10.968c7.0418539-4.1595814 10.4323665-12.5146805 8.2804292-20.4051171-2.1519372-7.89043655-9.3148138-13.36733857-17.4934292-13.3758834z" stroke-linecap="round"/><path d="m8.92 53.669h18.426v-8.92h-18.426z" stroke-linecap="round"/><path d="m14.185 53.669h8.043v7.312h-8.043z"/></g><path d="m47.527 21.935 7.019-7.019"/><path d="m19.011 21.935-7.019-7.019"/><path d="m58.057 40.069h9.798"/><path d="m0 40.069h8.921"/></g></svg>

<?xml version="1.0" encoding="UTF-8"?>
<svg width="112px" height="109px" viewBox="0 0 112 109" version="1.1" xmlns="http://www.w3.org/2000/svg" xmlns:xlink="http://www.w3.org/1999/xlink">
    <!-- Generator: Sketch 63.1 (92452) - https://sketch.com -->
    <title>treasury-open-to-anyone</title>
    <desc>Created with Sketch.</desc>
    <g id="Page-1" stroke="none" stroke-width="1" fill="none" fill-rule="evenodd">
        <g id="treasury-open-to-anyone" transform="translate(0.000000, 2.000000)" stroke="#686868" stroke-width="3">
            <path d="M32.758,93.154 L32.758,105.292 L71.219,105.292 L71.219,82.625 L83.358,82.625 C93.03803,82.5969919 100.87844,74.7570284 100.907,65.077 L100.907,59.227 L108.95,59.227 L100.907,42.848 L100.907,17.548 C100.87844,7.86797165 93.03803,0.028008073 83.358,0 L50.458,0 C40.7775811,0.028010806 32.9370108,7.86858112 32.909,17.549" id="Path_1656"></path>
            <g id="Group_1303" transform="translate(15.648000, 24.714000)">
                <path d="M18.133,7.897 C13.0260013,9.49358695 8.86380811,13.2288699 6.726,18.134" id="Path_1657"></path>
                <g id="Group_1302">
                    <path d="M18.133,-4.97125839e-07 C13.3234121,-0.000795967252 8.71059859,1.90952129 5.30980014,5.3105073 C1.90900168,8.7114933 -0.00106119944,13.3244122 -8.83535874e-07,18.134 C0.0623182418,24.5426458 3.43709678,30.4625068 8.92,33.781 L8.92,44.749 L27.346,44.749 L27.346,33.781 C34.3878539,29.6214186 37.7783665,21.2663195 35.6264292,13.3758829 C33.474492,5.48544635 26.3116154,0.00854433228 18.133,-4.97125839e-07 L18.133,-4.97125839e-07 Z" id="Path_1658" stroke-linecap="round"></path>
                    <polygon id="Path_1659" stroke-linecap="round" points="8.92 53.669 27.346 53.669 27.346 44.749 8.92 44.749"></polygon>
                    <rect id="Rectangle_567" x="14.185" y="53.669" width="8.043" height="7.312"></rect>
                </g>
            </g>
            <line x1="47.527" y1="21.935" x2="54.546" y2="14.916" id="Line_1024"></line>
            <line x1="19.011" y1="21.935" x2="11.992" y2="14.916" id="Line_1025"></line>
            <line x1="58.057" y1="40.069" x2="67.855" y2="40.069" id="Line_1026"></line>
            <line x1="1.77635684e-15" y1="40.069" x2="8.921" y2="40.069" id="Line_1027"></line>
        </g>
    </g>
</svg>
